WPMap/assets/css/svg/icon_guildmark.svg

<svg width="57" height="63" viewBox="0 0 57 63" fill="none" xmlns="http://www.w3.org/2000/svg">
<path d="M0 0V4.59773H5.79008V62.996L9.35258 60.2636V4.59773H47.6474V60.2676L51.2708 63V4.59773H57V0H0ZM13.3939 7.30625V56.9506L28.5 42.8949L43.6061 56.9506V7.65625C39.3255 10.3966 34.2495 12.0034 28.784 12.0034C23.3186 12.0034 17.7841 10.2733 13.3898 7.30625H13.3939ZM29.6077 13.6301C29.8593 14.3222 29.9364 15.054 30.0703 15.7699C30.476 17.9733 30.8858 20.1767 31.2632 22.3801C31.4498 23.4739 32.1071 24.2773 33.4218 24.6949C35.341 25.3074 37.2683 25.904 39.2118 26.4688C39.8692 26.6597 40.6563 26.7193 40.705 27.4034C40.7618 28.1631 39.9057 28.2307 39.2362 28.4375C37.244 29.046 35.2558 29.6585 33.2757 30.2869C32.0544 30.6727 31.4579 31.4364 31.2794 32.4307C30.9467 34.2722 30.6099 36.1176 30.2731 37.9591C30.0703 39.0608 29.8755 40.1625 29.6442 41.2602C29.6036 41.4432 29.1654 41.9085 28.7313 41.9045C28.3174 41.9045 27.9076 41.4352 27.8711 41.2602C27.6398 40.1625 27.445 39.0608 27.2422 37.9591C26.9013 36.1176 26.5686 34.2722 26.2359 32.4307C26.0574 31.4364 25.4569 30.6767 24.2396 30.2869C22.2595 29.6585 20.2714 29.046 18.2791 28.4375C17.6137 28.2347 16.7535 28.167 16.8103 27.4034C16.863 26.7193 17.6461 26.6597 18.3035 26.4688C20.247 25.904 22.1743 25.3074 24.0935 24.6949C24.0935 24.6949 24.97 24.0903 25.3919 23.0642L27.445 15.7699C27.5749 15.054 27.656 14.3222 27.9076 13.6301C27.9766 13.4432 28.3661 12.9619 28.7597 12.9619C29.1533 12.9619 29.5428 13.4432 29.6118 13.6301H29.6077Z" fill="black"/>
</svg>

<svg xmlns="http://www.w3.org/2000/svg" width="57" height="63" fill="none"><path fill="#000" d="M0 0v4.598h5.79v58.398l3.563-2.732V4.598h38.294v55.67L51.271 63V4.598H57V0H0Zm13.394 7.306v49.645L28.5 42.895 43.606 56.95V7.656a27.388 27.388 0 0 1-14.822 4.347c-5.465 0-11-1.73-15.394-4.697h.004Zm16.214 6.324c.251.692.328 1.424.462 2.14.406 2.203.816 4.407 1.193 6.61.187 1.094.844 1.897 2.159 2.315 1.919.612 3.846 1.209 5.79 1.774.657.19 1.444.25 1.493.934.057.76-.8.828-1.469 1.035-1.992.608-3.98 1.22-5.96 1.849-1.222.386-1.818 1.15-1.997 2.144-.332 1.841-.67 3.687-1.006 5.528-.203 1.102-.398 2.203-.629 3.301-.04.183-.479.648-.913.645-.414 0-.823-.47-.86-.645-.231-1.097-.426-2.2-.629-3.3-.34-1.842-.673-3.688-1.006-5.53-.179-.994-.78-1.753-1.996-2.143a573.91 573.91 0 0 0-5.96-1.85c-.666-.202-1.527-.27-1.47-1.034.053-.684.836-.743 1.494-.934 1.943-.565 3.87-1.162 5.79-1.774 0 0 .876-.605 1.298-1.63l2.053-7.295c.13-.716.211-1.448.463-2.14.069-.187.458-.668.852-.668.393 0 .783.481.852.668h-.004Z"/></svg>
